src/assets/icons/letters,simple,serif-s.svg

<svg width="48" height="48" viewBox="0 0 48 48" fill="none" xmlns="http://www.w3.org/2000/svg">
<rect opacity="0.2" x="5" y="5" width="38" height="38" rx="4" fill="black"/>
<path d="M15.6737 28.35H16.8437C17.1237 30.25 17.8837 31.75 19.1237 32.85C20.3637 33.93 21.8937 34.47 23.7137 34.47C24.4537 34.47 25.1337 34.38 25.7537 34.2C26.3737 34.02 26.9037 33.77 27.3437 33.45C27.7837 33.11 28.1237 32.72 28.3637 32.28C28.6037 31.82 28.7237 31.31 28.7237 30.75C28.7237 30.27 28.6437 29.86 28.4837 29.52C28.3437 29.16 28.0637 28.82 27.6437 28.5C27.2237 28.16 26.6437 27.82 25.9037 27.48C25.1837 27.14 24.2437 26.75 23.0837 26.31C20.7437 25.41 19.0137 24.37 17.8937 23.19C16.7737 21.99 16.2137 20.58 16.2137 18.96C16.2137 18.02 16.3937 17.16 16.7537 16.38C17.1137 15.6 17.6137 14.93 18.2537 14.37C18.9137 13.81 19.6937 13.38 20.5937 13.08C21.5137 12.76 22.5237 12.6 23.6237 12.6C24.6437 12.6 25.6037 12.76 26.5037 13.08C27.4037 13.4 28.2937 13.88 29.1737 14.52L29.7137 13.02H30.4337L30.7637 19.5H29.5937C29.1137 17.86 28.3637 16.61 27.3437 15.75C26.3237 14.87 25.1437 14.43 23.8037 14.43C22.5637 14.43 21.5537 14.74 20.7737 15.36C20.0137 15.96 19.6337 16.74 19.6337 17.7C19.6337 18.12 19.7037 18.5 19.8437 18.84C19.9837 19.16 20.2437 19.47 20.6237 19.77C21.0037 20.07 21.5237 20.38 22.1837 20.7C22.8437 21 23.6937 21.34 24.7337 21.72C26.1337 22.26 27.3237 22.81 28.3037 23.37C29.3037 23.91 30.1137 24.5 30.7337 25.14C31.3737 25.76 31.8437 26.42 32.1437 27.12C32.4437 27.82 32.5937 28.59 32.5937 29.43C32.5937 30.45 32.3737 31.38 31.9337 32.22C31.4937 33.06 30.8737 33.78 30.0737 34.38C29.2937 34.98 28.3537 35.45 27.2537 35.79C26.1737 36.13 24.9737 36.3 23.6537 36.3C22.4537 36.3 21.3737 36.14 20.4137 35.82C19.4537 35.48 18.4637 34.94 17.4437 34.2L16.8437 36H16.1237L15.6737 28.35Z" fill="black"/>
</svg>

<svg xmlns="http://www.w3.org/2000/svg" width="48" height="48" fill="none" viewBox="0 0 48 48">
  <rect width="38" height="38" x="5" y="5" fill="#000" opacity=".2" rx="4"/>
  <path fill="#000" d="M15.674 28.35h1.17c.28 1.9 1.04 3.4 2.28 4.5 1.24 1.08 2.77 1.62 4.59 1.62.74 0 1.42-.09 2.04-.27.62-.18 1.15-.43 1.59-.75.44-.34.78-.73 1.02-1.17.24-.46.36-.97.36-1.53 0-.48-.08-.89-.24-1.23-.14-.36-.42-.7-.84-1.02-.42-.34-1-.68-1.74-1.02-.72-.34-1.66-.73-2.82-1.17-2.34-.9-4.07-1.94-5.19-3.12-1.12-1.2-1.68-2.61-1.68-4.23 0-.94.18-1.8.54-2.58.36-.78.86-1.45 1.5-2.01.66-.56 1.44-.99 2.34-1.29.92-.32 1.93-.48 3.03-.48 1.02 0 1.98.16 2.88.48.9.32 1.79.8 2.67 1.44l.54-1.5h.72l.33 6.48h-1.17c-.48-1.64-1.23-2.89-2.25-3.75-1.02-.88-2.2-1.32-3.54-1.32-1.24 0-2.25.31-3.03.93-.76.6-1.14 1.38-1.14 2.34 0 .42.07.8.21 1.14.14.32.4.63.78.93.38.3.9.61 1.56.93.66.3 1.51.64 2.55 1.02 1.4.54 2.59 1.09 3.57 1.65 1 .54 1.81 1.13 2.43 1.77.64.62 1.11 1.28 1.41 1.98.3.7.45 1.47.45 2.31 0 1.02-.22 1.95-.66 2.79-.44.84-1.06 1.56-1.86 2.16-.78.6-1.72 1.07-2.82 1.41-1.08.34-2.28.51-3.6.51-1.2 0-2.28-.16-3.24-.48-.96-.34-1.95-.88-2.97-1.62l-.6 1.8h-.72l-.45-7.65z"/>
</svg>
